X: 30
T:Sandy River Belle
M:4/4
L:1/8
C:
S:AABB form
R:Key of G
K:G
|:DEGA|B4A2G2|e2d2DEGA|B4A2G2|E4DEGA|B4A2G2|!
|e2d2ddgg|ddggB2A2|1G4:|2G8||!
|:ddggddgg|b2b2a2g2|ddggddgg|f2g2a2a2|!
|ddggddgg|b2b2a2g2|ddggddgg|B2A2G4:|
